(G-CODE GENERATED BY FLATCAM v8.994 - www.flatcam.org - Version Date: 2020/11/7)

(Name: controlDeBombas-Edge_Cuts.gbr_mouse_bites_cnc)
(Type: G-code from Geometry)
(Units: MM)

(Created on sábado, 11 junio 2022 at 19:09)

(This preprocessor is the default preprocessor used by FlatCAM.)
(It is made to work with MACH3 compatible motion controllers.)


(TOOLS DIAMETER: )
(Tool: 1 -> Dia: 0.6)

(FEEDRATE Z: )
(Tool: 1 -> Feedrate: 60.0)

(FEEDRATE RAPIDS: )
(Tool: 1 -> Feedrate Rapids: 1500)

(Z_CUT: )
(Tool: 1 -> Z_Cut: -2.2)

(Tools Offset: )
(Tool: 1 -> Offset Z: 0.0)

(Z_MOVE: )
(Tool: 1 -> Z_Move: 2)

(Z Toolchange: 15 mm)
(X,Y Toolchange: 0.0000, 0.0000 mm)
(Z Start: None mm)
(Z End: 0.5 mm)
(X,Y End: None mm)
(Steps per circle: 64)
(Preprocessor Excellon: default)

(X range:    4.2750 ...   60.7250  mm)
(Y range:  -63.2250 ...   -4.2750  mm)

(Spindle Speed: 0 RPM)
G21
G90
G94

G01 F60.00

M5
G00 Z15.0000
T1
G00 X0.0000 Y0.0000                
M6
(MSG, Change to Tool Dia = 0.6000 ||| Total drills for tool T1 = 12)
M0
G00 Z15.0000

(G-CODE GENERATED BY FLATCAM v8.994 - www.flatcam.org - Version Date: 2020/11/7)

(Name: controlDeBombas-Edge_Cuts.gbr_cutout_3_cnc)
(Type: G-code from Geometry)
(Units: MM)

(Created on sábado, 11 junio 2022 at 19:06)

(This preprocessor is the default preprocessor used by FlatCAM.)
(It is made to work with MACH3 compatible motion controllers.)

(TOOL DIAMETER: 2.4 mm)
(Feedrate_XY: 60.0 mm/min)
(Feedrate_Z: 60.0 mm/min)
(Feedrate rapids 1500.0 mm/min)

(Z_Cut: -2.2 mm)
(DepthPerCut: 0.6 mm <=>4 passes)
(Z_Move: 2.0 mm)
(Z Start: None mm)
(Z End: 15.0 mm)
(X,Y End: None mm)
(Steps per circle: 64)
(Preprocessor Geometry: default)

(X range:    3.6750 ...   61.3250  mm)
(Y range:  -63.8250 ...   -3.6750  mm)

(Spindle Speed: 0.0 RPM)
G21
G90
G94

G01 F60.00

M5
G00 Z15.0000
G00 X0.0000 Y0.0000
T1
M6    
(MSG, Change to Tool Dia = 2.4000)
M0
G00 Z15.0000

M03
G01 F60.00
G00 X30.4000 Y-3.6750
G01 F60.00
G01 Z-0.6000
G01 F60.00
G01 X5.0000 Y-3.6750
G01 X4.9338 Y-3.6767
G01 X4.8068 Y-3.6892
G01 X4.6792 Y-3.7144
G01 X4.5548 Y-3.7521
G01 X4.4346 Y-3.8017
G01 X4.3199 Y-3.8629
G01 X4.2117 Y-3.9350
G01 X4.1111 Y-4.0174
G01 X4.0191 Y-4.1093
G01 X3.9365 Y-4.2097
G01 X3.8642 Y-4.3178
G01 X3.8028 Y-4.4324
G01 X3.7529 Y-4.5525
G01 X3.7150 Y-4.6769
G01 X3.6895 Y-4.8044
G01 X3.6767 Y-4.9338
G01 X3.6750 Y-5.0000
G01 X3.6750 Y-31.4500
G00 X3.6750 Y-31.4500
G01 F60.00
G01 Z-1.2000
G01 F60.00
G01 X3.6750 Y-5.0000
G01 X3.6767 Y-4.9338
G01 X3.6895 Y-4.8044
G01 X3.7150 Y-4.6769
G01 X3.7529 Y-4.5525
G01 X3.8028 Y-4.4324
G01 X3.8642 Y-4.3178
G01 X3.9365 Y-4.2097
G01 X4.0191 Y-4.1093
G01 X4.1111 Y-4.0174
G01 X4.2117 Y-3.9350
G01 X4.3199 Y-3.8629
G01 X4.4346 Y-3.8017
G01 X4.5548 Y-3.7521
G01 X4.6792 Y-3.7144
G01 X4.8068 Y-3.6892
G01 X4.9338 Y-3.6767
G01 X5.0000 Y-3.6750
G01 X30.4000 Y-3.6750
G00 X30.4000 Y-3.6750
G01 F60.00
G01 Z-1.8000
G01 F60.00
G01 X5.0000 Y-3.6750
G01 X4.9338 Y-3.6767
G01 X4.8068 Y-3.6892
G01 X4.6792 Y-3.7144
G01 X4.5548 Y-3.7521
G01 X4.4346 Y-3.8017
G01 X4.3199 Y-3.8629
G01 X4.2117 Y-3.9350
G01 X4.1111 Y-4.0174
G01 X4.0191 Y-4.1093
G01 X3.9365 Y-4.2097
G01 X3.8642 Y-4.3178
G01 X3.8028 Y-4.4324
G01 X3.7529 Y-4.5525
G01 X3.7150 Y-4.6769
G01 X3.6895 Y-4.8044
G01 X3.6767 Y-4.9338
G01 X3.6750 Y-5.0000
G01 X3.6750 Y-31.4500
G00 X3.6750 Y-31.4500
G01 F60.00
G01 Z-2.2000
G01 F60.00
G01 X3.6750 Y-5.0000
G01 X3.6767 Y-4.9338
G01 X3.6895 Y-4.8044
G01 X3.7150 Y-4.6769
G01 X3.7529 Y-4.5525
G01 X3.8028 Y-4.4324
G01 X3.8642 Y-4.3178
G01 X3.9365 Y-4.2097
G01 X4.0191 Y-4.1093
G01 X4.1111 Y-4.0174
G01 X4.2117 Y-3.9350
G01 X4.3199 Y-3.8629
G01 X4.4346 Y-3.8017
G01 X4.5548 Y-3.7521
G01 X4.6792 Y-3.7144
G01 X4.8068 Y-3.6892
G01 X4.9338 Y-3.6767
G01 X5.0000 Y-3.6750
G01 X30.4000 Y-3.6750
G00 Z2.0000
G00 X34.8000 Y-3.6750
G01 F60.00
G01 Z-0.6000
G01 F60.00
G01 X60.0000 Y-3.6750
G01 X60.0662 Y-3.6767
G01 X60.1932 Y-3.6892
G01 X60.3208 Y-3.7144
G01 X60.4452 Y-3.7521
G01 X60.5654 Y-3.8017
G01 X60.6801 Y-3.8629
G01 X60.7883 Y-3.9350
G01 X60.8889 Y-4.0174
G01 X60.9809 Y-4.1093
G01 X61.0635 Y-4.2097
G01 X61.1358 Y-4.3178
G01 X61.1972 Y-4.4324
G01 X61.2471 Y-4.5525
G01 X61.2850 Y-4.6769
G01 X61.3105 Y-4.8044
G01 X61.3233 Y-4.9338
G01 X61.3250 Y-5.0000
G01 X61.3250 Y-31.4500
G00 X61.3250 Y-31.4500
G01 F60.00
G01 Z-1.2000
G01 F60.00
G01 X61.3250 Y-5.0000
G01 X61.3233 Y-4.9338
G01 X61.3105 Y-4.8044
G01 X61.2850 Y-4.6769
G01 X61.2471 Y-4.5525
G01 X61.1972 Y-4.4324
G01 X61.1358 Y-4.3178
G01 X61.0635 Y-4.2097
G01 X60.9809 Y-4.1093
G01 X60.8889 Y-4.0174
G01 X60.7883 Y-3.9350
G01 X60.6801 Y-3.8629
G01 X60.5654 Y-3.8017
G01 X60.4452 Y-3.7521
G01 X60.3208 Y-3.7144
G01 X60.1932 Y-3.6892
G01 X60.0662 Y-3.6767
G01 X60.0000 Y-3.6750
G01 X34.8000 Y-3.6750
G00 X34.8000 Y-3.6750
G01 F60.00
G01 Z-1.8000
G01 F60.00
G01 X60.0000 Y-3.6750
G01 X60.0662 Y-3.6767
G01 X60.1932 Y-3.6892
G01 X60.3208 Y-3.7144
G01 X60.4452 Y-3.7521
G01 X60.5654 Y-3.8017
G01 X60.6801 Y-3.8629
G01 X60.7883 Y-3.9350
G01 X60.8889 Y-4.0174
G01 X60.9809 Y-4.1093
G01 X61.0635 Y-4.2097
G01 X61.1358 Y-4.3178
G01 X61.1972 Y-4.4324
G01 X61.2471 Y-4.5525
G01 X61.2850 Y-4.6769
G01 X61.3105 Y-4.8044
G01 X61.3233 Y-4.9338
G01 X61.3250 Y-5.0000
G01 X61.3250 Y-31.4500
G00 X61.3250 Y-31.4500
G01 F60.00
G01 Z-2.2000
G01 F60.00
G01 X61.3250 Y-5.0000
G01 X61.3233 Y-4.9338
G01 X61.3105 Y-4.8044
G01 X61.2850 Y-4.6769
G01 X61.2471 Y-4.5525
G01 X61.1972 Y-4.4324
G01 X61.1358 Y-4.3178
G01 X61.0635 Y-4.2097
G01 X60.9809 Y-4.1093
G01 X60.8889 Y-4.0174
G01 X60.7883 Y-3.9350
G01 X60.6801 Y-3.8629
G01 X60.5654 Y-3.8017
G01 X60.4452 Y-3.7521
G01 X60.3208 Y-3.7144
G01 X60.1932 Y-3.6892
G01 X60.0662 Y-3.6767
G01 X60.0000 Y-3.6750
G01 X34.8000 Y-3.6750
G00 Z2.0000
G00 X61.3250 Y-35.8500
G01 F60.00
G01 Z-0.6000
G01 F60.00
G01 X61.3250 Y-62.5000
G01 X61.3233 Y-62.5662
G01 X61.3105 Y-62.6956
G01 X61.2850 Y-62.8231
G01 X61.2471 Y-62.9475
G01 X61.1972 Y-63.0676
G01 X61.1358 Y-63.1822
G01 X61.0635 Y-63.2903
G01 X60.9809 Y-63.3907
G01 X60.8889 Y-63.4826
G01 X60.7883 Y-63.5650
G01 X60.6801 Y-63.6371
G01 X60.5654 Y-63.6983
G01 X60.4452 Y-63.7479
G01 X60.3208 Y-63.7856
G01 X60.1932 Y-63.8108
G01 X60.0662 Y-63.8233
G01 X60.0000 Y-63.8250
G01 X34.8000 Y-63.8250
G00 X34.8000 Y-63.8250
G01 F60.00
G01 Z-1.2000
G01 F60.00
G01 X60.0000 Y-63.8250
G01 X60.0662 Y-63.8233
G01 X60.1932 Y-63.8108
G01 X60.3208 Y-63.7856
G01 X60.4452 Y-63.7479
G01 X60.5654 Y-63.6983
G01 X60.6801 Y-63.6371
G01 X60.7883 Y-63.5650
G01 X60.8889 Y-63.4826
G01 X60.9809 Y-63.3907
G01 X61.0635 Y-63.2903
G01 X61.1358 Y-63.1822
G01 X61.1972 Y-63.0676
G01 X61.2471 Y-62.9475
G01 X61.2850 Y-62.8231
G01 X61.3105 Y-62.6956
G01 X61.3233 Y-62.5662
G01 X61.3250 Y-62.5000
G01 X61.3250 Y-35.8500
G00 X61.3250 Y-35.8500
G01 F60.00
G01 Z-1.8000
G01 F60.00
G01 X61.3250 Y-62.5000
G01 X61.3233 Y-62.5662
G01 X61.3105 Y-62.6956
G01 X61.2850 Y-62.8231
G01 X61.2471 Y-62.9475
G01 X61.1972 Y-63.0676
G01 X61.1358 Y-63.1822
G01 X61.0635 Y-63.2903
G01 X60.9809 Y-63.3907
G01 X60.8889 Y-63.4826
G01 X60.7883 Y-63.5650
G01 X60.6801 Y-63.6371
G01 X60.5654 Y-63.6983
G01 X60.4452 Y-63.7479
G01 X60.3208 Y-63.7856
G01 X60.1932 Y-63.8108
G01 X60.0662 Y-63.8233
G01 X60.0000 Y-63.8250
G01 X34.8000 Y-63.8250
G00 X34.8000 Y-63.8250
G01 F60.00
G01 Z-2.2000
G01 F60.00
G01 X60.0000 Y-63.8250
G01 X60.0662 Y-63.8233
G01 X60.1932 Y-63.8108
G01 X60.3208 Y-63.7856
G01 X60.4452 Y-63.7479
G01 X60.5654 Y-63.6983
G01 X60.6801 Y-63.6371
G01 X60.7883 Y-63.5650
G01 X60.8889 Y-63.4826
G01 X60.9809 Y-63.3907
G01 X61.0635 Y-63.2903
G01 X61.1358 Y-63.1822
G01 X61.1972 Y-63.0676
G01 X61.2471 Y-62.9475
G01 X61.2850 Y-62.8231
G01 X61.3105 Y-62.6956
G01 X61.3233 Y-62.5662
G01 X61.3250 Y-62.5000
G01 X61.3250 Y-35.8500
G00 Z2.0000
G00 X30.4000 Y-63.8250
G01 F60.00
G01 Z-0.6000
G01 F60.00
G01 X5.0000 Y-63.8250
G01 X4.9338 Y-63.8233
G01 X4.8068 Y-63.8108
G01 X4.6792 Y-63.7856
G01 X4.5548 Y-63.7479
G01 X4.4346 Y-63.6983
G01 X4.3199 Y-63.6371
G01 X4.2117 Y-63.5650
G01 X4.1111 Y-63.4826
G01 X4.0191 Y-63.3907
G01 X3.9365 Y-63.2903
G01 X3.8642 Y-63.1822
G01 X3.8028 Y-63.0676
G01 X3.7529 Y-62.9475
G01 X3.7150 Y-62.8231
G01 X3.6895 Y-62.6956
G01 X3.6767 Y-62.5662
G01 X3.6750 Y-62.5000
G01 X3.6750 Y-35.8500
G00 X3.6750 Y-35.8500
G01 F60.00
G01 Z-1.2000
G01 F60.00
G01 X3.6750 Y-62.5000
G01 X3.6767 Y-62.5662
G01 X3.6895 Y-62.6956
G01 X3.7150 Y-62.8231
G01 X3.7529 Y-62.9475
G01 X3.8028 Y-63.0676
G01 X3.8642 Y-63.1822
G01 X3.9365 Y-63.2903
G01 X4.0191 Y-63.3907
G01 X4.1111 Y-63.4826
G01 X4.2117 Y-63.5650
G01 X4.3199 Y-63.6371
G01 X4.4346 Y-63.6983
G01 X4.5548 Y-63.7479
G01 X4.6792 Y-63.7856
G01 X4.8068 Y-63.8108
G01 X4.9338 Y-63.8233
G01 X5.0000 Y-63.8250
G01 X30.4000 Y-63.8250
G00 X30.4000 Y-63.8250
G01 F60.00
G01 Z-1.8000
G01 F60.00
G01 X5.0000 Y-63.8250
G01 X4.9338 Y-63.8233
G01 X4.8068 Y-63.8108
G01 X4.6792 Y-63.7856
G01 X4.5548 Y-63.7479
G01 X4.4346 Y-63.6983
G01 X4.3199 Y-63.6371
G01 X4.2117 Y-63.5650
G01 X4.1111 Y-63.4826
G01 X4.0191 Y-63.3907
G01 X3.9365 Y-63.2903
G01 X3.8642 Y-63.1822
G01 X3.8028 Y-63.0676
G01 X3.7529 Y-62.9475
G01 X3.7150 Y-62.8231
G01 X3.6895 Y-62.6956
G01 X3.6767 Y-62.5662
G01 X3.6750 Y-62.5000
G01 X3.6750 Y-35.8500
G00 X3.6750 Y-35.8500
G01 F60.00
G01 Z-2.2000
G01 F60.00
G01 X3.6750 Y-62.5000
G01 X3.6767 Y-62.5662
G01 X3.6895 Y-62.6956
G01 X3.7150 Y-62.8231
G01 X3.7529 Y-62.9475
G01 X3.8028 Y-63.0676
G01 X3.8642 Y-63.1822
G01 X3.9365 Y-63.2903
G01 X4.0191 Y-63.3907
G01 X4.1111 Y-63.4826
G01 X4.2117 Y-63.5650
G01 X4.3199 Y-63.6371
G01 X4.4346 Y-63.6983
G01 X4.5548 Y-63.7479
G01 X4.6792 Y-63.7856
G01 X4.8068 Y-63.8108
G01 X4.9338 Y-63.8233
G01 X5.0000 Y-63.8250
G01 X30.4000 Y-63.8250
G00 Z2.0000
M05
G00 Z2.0000
G00 Z15.00





