(G-CODE GENERATED BY FLATCAM v8.994 - www.flatcam.org - Version Date: 2020/11/7)

(Name: controlDeBombas-PTH.drl_edit_cnc)
(Type: G-code from Geometry)
(Units: MM)

(Created on sábado, 11 junio 2022 at 16:02)

(This preprocessor is the default preprocessor used by FlatCAM.)
(It is made to work with MACH3 compatible motion controllers.)


(TOOLS DIAMETER: )
(Tool: 1 -> Dia: 0.5)
(Tool: 2 -> Dia: 0.8)
(Tool: 3 -> Dia: 1.0)
(Tool: 4 -> Dia: 3.2)

(FEEDRATE Z: )
(Tool: 1 -> Feedrate: 60.0)
(Tool: 2 -> Feedrate: 60.0)
(Tool: 3 -> Feedrate: 60.0)
(Tool: 4 -> Feedrate: 60.0)

(FEEDRATE RAPIDS: )
(Tool: 1 -> Feedrate Rapids: 1500)
(Tool: 2 -> Feedrate Rapids: 1500)
(Tool: 3 -> Feedrate Rapids: 1500)
(Tool: 4 -> Feedrate Rapids: 1500)

(Z_CUT: )
(Tool: 1 -> Z_Cut: -2.2)
(Tool: 2 -> Z_Cut: -2.2)
(Tool: 3 -> Z_Cut: -2.2)
(Tool: 4 -> Z_Cut: -2.2)

(Tools Offset: )
(Tool: 1 -> Offset Z: 0.0)
(Tool: 2 -> Offset Z: 0.0)
(Tool: 3 -> Offset Z: 0.0)
(Tool: 4 -> Offset Z: 0.0)

(Z_MOVE: )
(Tool: 1 -> Z_Move: 2.0)
(Tool: 2 -> Z_Move: 2.0)
(Tool: 3 -> Z_Move: 2.0)
(Tool: 4 -> Z_Move: 2.0)

(Z Toolchange: 15 mm)
(X,Y Toolchange: 0.0000, 0.0000 mm)
(Z Start: None mm)
(Z End: 0.5 mm)
(X,Y End: None mm)
(Steps per circle: 64)
(Preprocessor Excellon: default)

(X range:   13.0000 ...   58.1500  mm)
(Y range:  -60.1500 ...   -6.8500  mm)

(Spindle Speed: 0 RPM)
G21
G90
G94

G01 F60.00

M5
G00 Z15.0000
T1
G00 X0.0000 Y0.0000                
M6
(MSG, Change to Tool Dia = 0.5000 ||| Total drills for tool T1 = 24)
M0
G00 Z15.0000

G01 F60.00
M03
G00 X57.9000 Y-9.5000
G01 Z-2.2000
G01 Z0
G00 Z2.0000
G00 X57.1970 Y-11.1970
G01 Z-2.2000
G01 Z0
G00 Z2.0000
G00 X55.5000 Y-11.9000
G01 Z-2.2000
G01 Z0
G00 Z2.0000
G00 X53.8030 Y-11.1970
G01 Z-2.2000
G01 Z0
G00 Z2.0000
G00 X23.6970 Y-55.8030
G01 Z-2.2000
G01 Z0
G00 Z2.0000
G00 X24.4000 Y-57.5000
G01 Z-2.2000
G01 Z0
G00 Z2.0000
G00 X23.6970 Y-59.1970
G01 Z-2.2000
G01 Z0
G00 Z2.0000
G00 X22.0000 Y-59.9000
G01 Z-2.2000
G01 Z0
G00 Z2.0000
G00 X20.3030 Y-59.1970
G01 Z-2.2000
G01 Z0
G00 Z2.0000
G00 X19.6000 Y-57.5000
G01 Z-2.2000
G01 Z0
G00 Z2.0000
G00 X20.3030 Y-55.8030
G01 Z-2.2000
G01 Z0
G00 Z2.0000
G00 X22.0000 Y-55.1000
G01 Z-2.2000
G01 Z0
G00 Z2.0000
G00 X23.6970 Y-11.1970
G01 Z-2.2000
G01 Z0
G00 Z2.0000
G00 X22.0000 Y-11.9000
G01 Z-2.2000
G01 Z0
G00 Z2.0000
G00 X20.3030 Y-11.1970
G01 Z-2.2000
G01 Z0
G00 Z2.0000
G00 X19.6000 Y-9.5000
G01 Z-2.2000
G01 Z0
G00 Z2.0000
G00 X20.3030 Y-7.8030
G01 Z-2.2000
G01 Z0
G00 Z2.0000
G00 X22.0000 Y-7.1000
G01 Z-2.2000
G01 Z0
G00 Z2.0000
G00 X23.6970 Y-7.8030
G01 Z-2.2000
G01 Z0
G00 Z2.0000
G00 X24.4000 Y-9.5000
G01 Z-2.2000
G01 Z0
G00 Z2.0000
G00 X53.1000 Y-9.5000
G01 Z-2.2000
G01 Z0
G00 Z2.0000
G00 X53.8030 Y-7.8030
G01 Z-2.2000
G01 Z0
G00 Z2.0000
G00 X55.5000 Y-7.1000
G01 Z-2.2000
G01 Z0
G00 Z2.0000
G00 X57.1970 Y-7.8030
G01 Z-2.2000
G01 Z0
G00 Z2.0000
G01 F60.00

M5
G00 Z15.0000
T2
G00 X0.0000 Y0.0000                
M6
(MSG, Change to Tool Dia = 0.8000 ||| Total drills for tool T2 = 23)
M0
G00 Z15.0000

G01 F60.00
M03
G00 X50.5500 Y-51.9100
G01 Z-2.2000
G01 Z0
G00 Z2.0000
G00 X56.1400 Y-53.6300
G01 Z-2.2000
G01 Z0
G00 Z2.0000
G00 X54.8700 Y-52.3600
G01 Z-2.2000
G01 Z0
G00 Z2.0000
G00 X53.6000 Y-53.6300
G01 Z-2.2000
G01 Z0
G00 Z2.0000
G00 X48.0100 Y-54.4500
G01 Z-2.2000
G01 Z0
G00 Z2.0000
G00 X42.5000 Y-54.5000
G01 Z-2.2000
G01 Z0
G00 Z2.0000
G00 X38.5000 Y-54.5000
G01 Z-2.2000
G01 Z0
G00 Z2.0000
G00 X34.5000 Y-54.1200
G01 Z-2.2000
G01 Z0
G00 Z2.0000
G00 X33.5000 Y-58.5000
G01 Z-2.2000
G01 Z0
G00 Z2.0000
G00 X28.5000 Y-58.5000
G01 Z-2.2000
G01 Z0
G00 Z2.0000
G00 X26.8800 Y-54.1200
G01 Z-2.2000
G01 Z0
G00 Z2.0000
G00 X26.8800 Y-51.5800
G01 Z-2.2000
G01 Z0
G00 Z2.0000
G00 X26.8800 Y-49.0400
G01 Z-2.2000
G01 Z0
G00 Z2.0000
G00 X26.8800 Y-46.5000
G01 Z-2.2000
G01 Z0
G00 Z2.0000
G00 X27.5000 Y-42.5000
G01 Z-2.2000
G01 Z0
G00 Z2.0000
G00 X27.5000 Y-39.9600
G01 Z-2.2000
G01 Z0
G00 Z2.0000
G00 X28.7700 Y-41.2300
G01 Z-2.2000
G01 Z0
G00 Z2.0000
G00 X34.5000 Y-46.5000
G01 Z-2.2000
G01 Z0
G00 Z2.0000
G00 X34.5000 Y-49.0400
G01 Z-2.2000
G01 Z0
G00 Z2.0000
G00 X34.5000 Y-51.5800
G01 Z-2.2000
G01 Z0
G00 Z2.0000
G00 X38.5000 Y-49.5000
G01 Z-2.2000
G01 Z0
G00 Z2.0000
G00 X42.5000 Y-49.5000
G01 Z-2.2000
G01 Z0
G00 Z2.0000
G00 X45.4700 Y-51.9100
G01 Z-2.2000
G01 Z0
G00 Z2.0000
G01 F60.00

M5
G00 Z15.0000
T3
G00 X0.0000 Y0.0000                
M6
(MSG, Change to Tool Dia = 1.0000 ||| Total drills for tool T3 = 31)
M0
G00 Z15.0000

G01 F60.00
M03
G00 X54.1100 Y-30.1800
G01 Z-2.2000
G01 Z0
G00 Z2.0000
G00 X53.1600 Y-36.1300
G01 Z-2.2000
G01 Z0
G00 Z2.0000
G00 X52.6900 Y-40.9900
G01 Z-2.2000
G01 Z0
G00 Z2.0000
G00 X53.6200 Y-45.6300
G01 Z-2.2000
G01 Z0
G00 Z2.0000
G00 X53.5000 Y-58.5000
G01 Z-2.2000
G01 Z0
G00 Z2.0000
G00 X38.2600 Y-58.5000
G01 Z-2.2000
G01 Z0
G00 Z2.0000
G00 X38.3800 Y-45.6300
G01 Z-2.2000
G01 Z0
G00 Z2.0000
G00 X37.4500 Y-40.9900
G01 Z-2.2000
G01 Z0
G00 Z2.0000
G00 X36.1600 Y-36.1300
G01 Z-2.2000
G01 Z0
G00 Z2.0000
G00 X43.0000 Y-36.1300
G01 Z-2.2000
G01 Z0
G00 Z2.0000
G00 X48.1600 Y-32.1300
G01 Z-2.2000
G01 Z0
G00 Z2.0000
G00 X42.1100 Y-30.1800
G01 Z-2.2000
G01 Z0
G00 Z2.0000
G00 X36.5550 Y-30.1800
G01 Z-2.2000
G01 Z0
G00 Z2.0000
G00 X30.6050 Y-32.1300
G01 Z-2.2000
G01 Z0
G00 Z2.0000
G00 X24.5550 Y-30.1800
G01 Z-2.2000
G01 Z0
G00 Z2.0000
G00 X26.0000 Y-36.1300
G01 Z-2.2000
G01 Z0
G00 Z2.0000
G00 X22.5000 Y-42.5000
G01 Z-2.2000
G01 Z0
G00 Z2.0000
G00 X22.5000 Y-45.0400
G01 Z-2.2000
G01 Z0
G00 Z2.0000
G00 X22.5000 Y-47.5800
G01 Z-2.2000
G01 Z0
G00 Z2.0000
G00 X13.5000 Y-52.5000
G01 Z-2.2000
G01 Z0
G00 Z2.0000
G00 X13.5000 Y-47.5000
G01 Z-2.2000
G01 Z0
G00 Z2.0000
G00 X13.5000 Y-42.5000
G01 Z-2.2000
G01 Z0
G00 Z2.0000
G00 X13.5000 Y-35.5000
G01 Z-2.2000
G01 Z0
G00 Z2.0000
G00 X13.5000 Y-30.5000
G01 Z-2.2000
G01 Z0
G00 Z2.0000
G00 X13.5000 Y-25.5000
G01 Z-2.2000
G01 Z0
G00 Z2.0000
G00 X13.5800 Y-18.5600
G01 Z-2.2000
G01 Z0
G00 Z2.0000
G00 X13.5800 Y-13.5600
G01 Z-2.2000
G01 Z0
G00 Z2.0000
G00 X24.5550 Y-17.9800
G01 Z-2.2000
G01 Z0
G00 Z2.0000
G00 X36.6050 Y-17.9300
G01 Z-2.2000
G01 Z0
G00 Z2.0000
G00 X42.1100 Y-17.9800
G01 Z-2.2000
G01 Z0
G00 Z2.0000
G00 X54.1600 Y-17.9300
G01 Z-2.2000
G01 Z0
G00 Z2.0000
G01 F60.00

M5
G00 Z15.0000
T4
G00 X0.0000 Y0.0000                
M6
(MSG, Change to Tool Dia = 3.2000 ||| Total drills for tool T4 = 3)
M0
G00 Z15.0000

G01 F60.00
M03
G00 X55.5000 Y-9.5000
G01 Z-2.2000
G01 Z0
G00 Z2.0000
G00 X22.0000 Y-9.5000
G01 Z-2.2000
G01 Z0
G00 Z2.0000
G00 X22.0000 Y-57.5000
G01 Z-2.2000
G01 Z0
G00 Z2.0000
M05
G00 Z0.50


